img/section-option-3.svg

<svg width="60" height="97" viewBox="0 0 60 97" fill="none" xmlns="http://www.w3.org/2000/svg">
<path fill-rule="evenodd" clip-rule="evenodd" d="M48 75.9973C48 77.6544 46.6582 78.9957 45 78.9957H15C13.3418 78.9957 11.9999 77.6544 11.9999 75.9973C11.9999 74.3384 13.3418 72.9964 15 72.9964H45C46.6582 72.9964 48 74.3384 48 75.9973ZM45 81.9966H15C13.3418 81.9966 11.9999 83.3373 11.9999 84.9966C11.9999 86.6559 13.3418 87.9959 15 87.9959H45C46.6582 87.9959 48 86.6559 48 84.9966C48 83.3373 46.6582 81.9966 45 81.9966ZM24 96.9959H35.9999C39.3164 96.9959 41.9999 94.3128 41.9999 90.9963H18C18 94.3128 20.6836 96.9959 24 96.9959ZM60 30.996C60 47.3082 50.1679 49.2066 48.3222 66.9959C48.3222 68.6547 46.9804 69.9968 45.3223 69.9968H14.6778C13.0194 69.9968 11.6776 68.6547 11.6776 66.9959H11.6718C9.83208 49.2066 0 47.3082 0 30.996C0 14.4265 13.4296 0.99585 30 0.99585C46.5702 0.99585 60 14.4265 60 30.996ZM42.1464 21.9966C7.27148 30.2459 24.1465 51.9968 24.1465 51.9968C24.1465 39.9957 32.959 37.1832 33.1464 37.5591C26.959 43.5592 24.1465 63.9962 24.1465 63.9962H30.1465C30.1465 63.9962 30.1465 57.9957 30.1465 51.9968C47.209 52.9336 42.1464 24.0578 42.1464 21.9966Z" fill="#18CFAB"/>
</svg>

<svg width="60" height="97" fill="none" xmlns="http://www.w3.org/2000/svg"><path fill-rule="evenodd" clip-rule="evenodd" d="M48 75.997a2.998 2.998 0 01-3 2.999H15c-1.658 0-3-1.342-3-2.999 0-1.659 1.342-3 3-3h30c1.658 0 3 1.341 3 3zm-3 6H15c-1.658 0-3 1.34-3 3a2.997 2.997 0 003 2.999h30c1.658 0 3-1.34 3-3 0-1.659-1.342-3-3-3zM24 96.996h12c3.316 0 6-2.683 6-6H18c0 3.317 2.684 6 6 6zm36-66c0 16.312-9.832 18.21-11.678 36 0 1.659-1.342 3-3 3H14.678c-1.659 0-3-1.341-3-3h-.006C9.832 49.206 0 47.308 0 30.996c0-16.57 13.43-30 30-30s30 13.43 30 30zm-17.854-9c-34.875 8.25-18 30-18 30 0-12 8.813-14.813 9-14.437-6.187 6-9 26.437-9 26.437h6v-12c17.063.938 12-27.938 12-30z" fill="#18CFAB"/></svg>
